public/images/vectors/single-banner-wave-2.svg

<svg xmlns="http://www.w3.org/2000/svg" width="86" height="284" viewBox="0 0 86 284" fill="none">
<path fill-rule="evenodd" clip-rule="evenodd" d="M80.0764 2.71656C81.3842 1.74294 82.6811 0.836749 83.9644 0L86 4.42259C84.801 5.20441 83.5827 6.05534 82.348 6.97454L80.0764 2.71656ZM65.6037 15.8137C67.942 13.331 70.273 11.0327 72.583 8.92728L75.222 12.8821C73.011 14.8973 70.7705 17.1057 68.5145 19.5011L65.6037 15.8137ZM52.9727 30.9853C55.001 28.2564 57.0416 25.6587 59.0853 23.1972L62.2095 26.6431C60.228 29.0298 58.2458 31.5529 56.2724 34.2079L52.9727 30.9853ZM41.8552 47.5181C43.6281 44.6115 45.4249 41.806 47.2386 39.1053L50.6872 42.1172C48.9185 44.7508 47.1649 47.4889 45.4332 50.3279L41.8552 47.5181ZM32.0802 65.1066C33.6253 62.0525 35.2024 59.0803 36.8059 56.1932L40.4981 58.8068C38.93 61.6303 37.387 64.5382 35.8746 67.5275L32.0802 65.1066ZM23.58 83.5706C24.9074 80.3904 26.2732 77.2787 27.6724 74.2382L31.5589 76.4686C30.1884 79.4466 28.8504 82.495 27.5497 85.6113L23.58 83.5706ZM16.4033 102.597C17.5058 99.3409 18.6509 96.1424 19.8347 93.0036L23.879 94.8563C22.7186 97.9331 21.5959 101.069 20.515 104.261L16.4033 102.597ZM10.4868 122.224C11.3736 118.881 12.3074 115.589 13.2844 112.347L17.4567 113.822C16.4985 117.001 15.5827 120.23 14.713 123.508L10.4868 122.224ZM5.89246 142.171C6.55645 138.783 7.27033 135.438 8.03082 132.137L12.3041 133.231C11.5581 136.47 10.8579 139.751 10.2065 143.074L5.89246 142.171ZM2.60532 162.423C3.04482 159.017 3.53619 155.647 4.07654 152.314L8.42511 153.025C7.895 156.294 7.41294 159.6 6.98175 162.942L2.60532 162.423ZM0.639573 182.867C0.858615 179.419 1.1322 176.002 1.45768 172.618L5.85575 172.944C5.53639 176.265 5.26793 179.618 5.05299 183.001L0.639573 182.867ZM9.87542e-05 203.294C-0.00260819 199.852 0.0503542 196.438 0.156592 193.051L4.57903 192.995C4.47476 196.319 4.42278 199.671 4.42543 203.048L9.87542e-05 203.294ZM0.663729 223.642C0.444275 220.235 0.280682 216.851 0.170819 213.49L4.59302 213.058C4.70088 216.357 4.86149 219.68 5.07698 223.025L0.663729 223.642ZM2.60156 243.824C2.17327 240.469 1.80044 237.133 1.48118 233.817L5.87975 233.017C6.19331 236.274 6.55953 239.551 6.98029 242.847L2.60156 243.824ZM5.76981 263.736C5.13933 260.429 4.56403 257.138 4.04222 253.864L8.39584 252.711C8.90863 255.93 9.47406 259.164 10.0938 262.415L5.76981 263.736ZM10.11 283.287C9.28641 280.038 8.51736 276.802 7.80136 273.579L12.0913 272.092C12.7954 275.261 13.5518 278.444 14.362 281.641L10.11 283.287Z" fill="#FFE4D1" fill-opacity="0.8"/>
</svg>

<?xml version="1.0" encoding="utf-8"?>
<!-- Generator: Adobe Illustrator 27.4.1, SVG Export Plug-In . SVG Version: 6.00 Build 0)  -->
<svg version="1.1" id="Layer_1" xmlns="http://www.w3.org/2000/svg" xmlns:xlink="http://www.w3.org/1999/xlink" x="0px" y="0px"
	 viewBox="0 0 86 284" style="enable-background:new 0 0 86 284;" xml:space="preserve">
<style type="text/css">
	.st0{opacity:0.2;fill-rule:evenodd;clip-rule:evenodd;fill:#4E73AD;fill-opacity:0.8;}
</style>
<path class="st0" d="M80.1,2.7c1.3-1,2.6-1.9,3.9-2.7l2,4.4c-1.2,0.8-2.4,1.6-3.7,2.6L80.1,2.7z M65.6,15.8c2.3-2.5,4.7-4.8,7-6.9
	l2.6,4c-2.2,2-4.5,4.2-6.7,6.6L65.6,15.8z M53,31c2-2.7,4.1-5.3,6.1-7.8l3.1,3.4c-2,2.4-4,4.9-5.9,7.6L53,31z M41.9,47.5
	c1.8-2.9,3.6-5.7,5.4-8.4l3.4,3c-1.8,2.6-3.5,5.4-5.3,8.2L41.9,47.5z M32.1,65.1c1.5-3.1,3.1-6,4.7-8.9l3.7,2.6
	c-1.6,2.8-3.1,5.7-4.6,8.7L32.1,65.1z M23.6,83.6c1.3-3.2,2.7-6.3,4.1-9.3l3.9,2.2c-1.4,3-2.7,6-4,9.1L23.6,83.6z M16.4,102.6
	c1.1-3.3,2.2-6.5,3.4-9.6l4,1.9c-1.2,3.1-2.3,6.2-3.4,9.4L16.4,102.6z M10.5,122.2c0.9-3.3,1.8-6.6,2.8-9.9l4.2,1.5
	c-1,3.2-1.9,6.4-2.7,9.7L10.5,122.2z M5.9,142.2c0.7-3.4,1.4-6.7,2.1-10l4.3,1.1c-0.7,3.2-1.4,6.5-2.1,9.8L5.9,142.2z M2.6,162.4
	c0.4-3.4,0.9-6.8,1.5-10.1l4.3,0.7c-0.5,3.3-1,6.6-1.4,9.9L2.6,162.4z M0.6,182.9c0.2-3.4,0.5-6.9,0.8-10.2l4.4,0.3
	c-0.3,3.3-0.6,6.7-0.8,10.1L0.6,182.9z M0,203.3c0-3.4,0.1-6.9,0.2-10.2l4.4-0.1c-0.1,3.3-0.2,6.7-0.2,10.1L0,203.3z M0.7,223.6
	c-0.2-3.4-0.4-6.8-0.5-10.2l4.4-0.4c0.1,3.3,0.3,6.6,0.5,10L0.7,223.6z M2.6,243.8c-0.4-3.4-0.8-6.7-1.1-10l4.4-0.8
	c0.3,3.3,0.7,6.5,1.1,9.8L2.6,243.8z M5.8,263.7c-0.6-3.3-1.2-6.6-1.7-9.9l4.4-1.2c0.5,3.2,1.1,6.5,1.7,9.7L5.8,263.7z M10.1,283.3
	c-0.8-3.2-1.6-6.5-2.3-9.7l4.3-1.5c0.7,3.2,1.5,6.4,2.3,9.5L10.1,283.3z"/>
</svg>
